packages/kaspersky-hexa-ui-icons/src/iconsSVGs/24/EndpointK8S.svg

<svg width="24" height="24" viewBox="0 0 24 24" fill="none" xmlns="http://www.w3.org/2000/svg">
<path fill-rule="evenodd" clip-rule="evenodd" d="M8 5C8 3.89543 8.89543 3 10 3H14C15.1046 3 16 3.89543 16 5V9C16 9.60452 15.7318 10.1464 15.3079 10.5131L17.6594 16H18.4C19.2837 16 20 16.7163 20 17.6V20.4C20 21.2837 19.2837 22 18.4 22H15.6C14.7163 22 14 21.2837 14 20.4V17.6C14 16.7549 14.6551 16.0629 15.4852 16.0041L13.3406 11H10.6594L8.5148 16.0041C9.34487 16.0629 10 16.7549 10 17.6V20.4C10 21.2837 9.28366 22 8.4 22H5.6C4.71634 22 4 21.2837 4 20.4V17.6C4 16.7163 4.71634 16 5.6 16H6.3406L8.69212 10.5131C8.26821 10.1464 8 9.60452 8 9V5ZM10.023 9C10.0154 8.99983 10.0077 8.99974 10 8.99974V5H14V8.99974L13.977 9H10.023ZM6.97695 18H6V20H8V18H7.02211C7.00709 18.0003 6.99203 18.0003 6.97695 18ZM17.0231 18C17.008 18.0003 16.9929 18.0003 16.9779 18H16V20H18V18H17.0231Z" fill="black"/>
</svg>

<svg xmlns="http://www.w3.org/2000/svg" width="24" height="24" fill="none" viewBox="0 0 24 24"><path fill="#000" fill-rule="evenodd" d="M8 5c0-1.1046.8954-2 2-2h4c1.1046 0 2 .8954 2 2v4a1.995 1.995 0 0 1-.6921 1.5131L17.6594 16H18.4c.8837 0 1.6.7163 1.6 1.6v2.8c0 .8837-.7163 1.6-1.6 1.6h-2.8c-.8837 0-1.6-.7163-1.6-1.6v-2.8c0-.8451.6551-1.5371 1.4852-1.5959L13.3406 11h-2.6812l-2.1446 5.0041C9.3448 16.0629 10 16.7549 10 17.6v2.8c0 .8837-.7163 1.6-1.6 1.6H5.6c-.8837 0-1.6-.7163-1.6-1.6v-2.8c0-.8837.7163-1.6 1.6-1.6h.7406l2.3515-5.4869A1.995 1.995 0 0 1 8 9zm2.023 4L10 8.9997V5h4v3.9997L13.977 9zm-3.046 9H6v2h2v-2h-.9779q-.0225.0005-.0451 0m10.0461 0a1 1 0 0 1-.0452 0H16v2h2v-2z"/></svg>
